T: Fiery Clockface, The
M: 6/8
L: 1/8
K: Dmaj
dcd D2 E | F2 G A3 | B2 E  EFE | G2 A B2 c | dcd D2 E | F2 G A2 g | fed edc | d3 d2 :|f2 d def | g2 f e2 d | c2 A ABA | c2 d e2 g |f2 d def | g2 f efg | a2 A ABc | d3 d2 :|
